X: 164
T:For a Birthday (Szuletesnapra)
O:Hungary
F: http://www.youtube.com/watch?v=vQq8HmXyxA0
L:1/8
M:4/8
K:F
Q:1/4=120
|:cAAA| cAAA|B4   |A4  :|
|:BGGG|BGGG |[1AF3| A4 :|[2AF F2| F4| 



